packages/ui-icons/svg/Line/add.svg

<svg viewBox="0 0 1920 1920" version="1.1" xmlns="http://www.w3.org/2000/svg">
    <path d="M915.743529 213L915.743529 915.743529 213 915.743529 213 1003.58647 915.743529 1003.58647 915.743529 1706.33 1003.58647 1706.33 1003.58647 1003.58647 1706.33 1003.58647 1706.33 915.743529 1003.58647 915.743529 1003.58647 213z" stroke="none" stroke-width="1" fill-rule="evenodd"/>
</svg>

<svg viewBox="0 0 1920 1920" xmlns="http://www.w3.org/2000/svg">
    <path d="M915.744 213v702.744H213v87.842h702.744v702.744h87.842v-702.744h702.744v-87.842h-702.744V213z" fill-rule="evenodd"/>
</svg>
